images_elementary_svg/cmd/sc_italic.svg

<svg viewBox="0 0 16 16" xmlns="http://www.w3.org/2000/svg" xmlns:xlink="http://www.w3.org/1999/xlink"><radialGradient id="a" cx="9" cy="3.783174" gradientTransform="matrix(-2.183201 -.15594313 .2735958 -3.8303361 27.613749 16.394315)" gradientUnits="userSpaceOnUse" r="3.655032"><stop offset="0" stop-color="#737373"/><stop offset=".262" stop-color="#636363"/><stop offset=".705" stop-color="#4b4b4b"/><stop offset="1" stop-color="#3f3f3f"/></radialGradient>

/&amp;amp;gt;<path d="m9.0582696 14.500798h-4.7133013l.1778604-.907088 1.6096369-.364614 2.08986-10.458193-1.4584555-.3646139.1778604-.9070881h4.7133015l-.177861.9070881-1.6007434.3646139-2.08986 10.458193 1.4495625.364614z" fill="url(#a)" stroke="#000" stroke-opacity=".6"/></svg>

<?xml version="1.0" encoding="UTF-8" standalone="no"?>
<svg
   xmlns:dc="http://purl.org/dc/elements/1.1/"
   xmlns:cc="http://creativecommons.org/ns#"
   xmlns:rdf="http://www.w3.org/1999/02/22-rdf-syntax-ns#"
   xmlns:svg="http://www.w3.org/2000/svg"
   xmlns="http://www.w3.org/2000/svg"
   xmlns:xlink="http://www.w3.org/1999/xlink"
   xmlns:sodipodi="http://sodipodi.sourceforge.net/DTD/sodipodi-0.dtd"
   xmlns:inkscape="http://www.inkscape.org/namespaces/inkscape"
   viewBox="0 0 16 16"
   version="1.1"
   id="svg13"
   sodipodi:docname="sc_italic.svg"
   inkscape:version="0.92.4 (unknown)"
   inkscape:export-filename="/home/rizmut/Dokumen/Rizmut/Github/libreoffice-style-elementary/images_elementary/cmd/sc_italic.png"
   inkscape:export-xdpi="96"
   inkscape:export-ydpi="96"><metadata
   id="metadata19">
  <rdf:RDF>
    <cc:Work
       rdf:about="">
      <dc:format>image/svg+xml</dc:format>
      <dc:type
         rdf:resource="http://purl.org/dc/dcmitype/StillImage" />
    </cc:Work>
  </rdf:RDF>
</metadata>
<defs
   id="defs17">
  <radialGradient
     inkscape:collect="always"
     xlink:href="#a"
     id="radialGradient857"
     cx="9"
     cy="3.7831736"
     fx="9"
     fy="3.7831736"
     r="3.6550317"
     gradientTransform="matrix(-2.183201,-0.15594313,0.2735958,-3.8303361,27.613749,16.394315)"
     gradientUnits="userSpaceOnUse" />
</defs>
<sodipodi:namedview
   pagecolor="#ffffff"
   bordercolor="#666666"
   borderopacity="1"
   objecttolerance="10"
   gridtolerance="10"
   guidetolerance="10"
   inkscape:pageopacity="0"
   inkscape:pageshadow="2"
   inkscape:window-width="1366"
   inkscape:window-height="714"
   id="namedview15"
   showgrid="true"
   inkscape:zoom="20.85965"
   inkscape:cx="5.7328153"
   inkscape:cy="5.9426314"
   inkscape:window-x="0"
   inkscape:window-y="28"
   inkscape:window-maximized="1"
   inkscape:current-layer="svg13">
  <inkscape:grid
     type="xygrid"
     id="grid826" />
</sodipodi:namedview>
<radialGradient
   id="a"
   cx="9.781"
   cy="3.505"
   gradientTransform="matrix(-2.59494 .15673 -.2 -3.09238 37.272 9.305)"
   gradientUnits="userSpaceOnUse"
   r="5.086">
  <stop
     offset="0"
     stop-color="#737373"
     id="stop2" />
  <stop
     offset=".262"
     stop-color="#636363"
     id="stop4" />
  <stop
     offset=".705"
     stop-color="#4b4b4b"
     id="stop6" />
  <stop
     offset="1"
     stop-color="#3f3f3f"
     id="stop8" />
</radialGradient>

/&amp;gt;<g
   aria-label="I"
   style="font-style:normal;font-weight:normal;font-size:40px;line-height:1.25;font-family:sans-serif;letter-spacing:0px;word-spacing:0px;fill:url(#radialGradient857);fill-opacity:1;stroke:#000000;stroke-opacity:0.6"
   id="text830">
  <path
     d="M 9.0582696,14.500798 H 4.3449683 L 4.5228287,13.59371 6.1324656,13.229096 8.2223256,2.770903 6.7638701,2.4062891 6.9417305,1.499201 H 11.655032 L 11.477171,2.4062891 9.8764276,2.770903 7.7865676,13.229096 9.2361301,13.59371 Z"
     style="font-style:italic;font-variant:normal;font-weight:normal;font-stretch:normal;font-size:18.21290779px;font-family:'Droid Sans';-inkscape-font-specification:'Droid Sans';fill:url(#radialGradient857);fill-opacity:1;stroke:#000000;stroke-opacity:0.6"
     id="path820" />
</g>
</svg>
